X: 1
T: Ironlegs
C: Trad
R: Hornpipe (Not Swung)
M: 4/4
L: 1/8
K: Dmaj
Z: ABC transcription by Verge Roller
r: 32
|: AG | "D" F2 AF "A" EFGE | "D" F2 DC D2 (3AAA | "G" B2 c2 d2 e2 | "A" cdBc A2 AG |
"D" F2 AF "A" EFGE | "D" F2 DC D2 (3AAA | "G" Bcde "A" fedc | "D" d2 dc d2 :|
|: ag | "D" fgfg "A" efef | "D" fgfg "A" efed | "Bm" dede "F#m" cdcd | "Bm" dede "F#m" cdcB |
"G" BcBc "D" A2 (3AAA | "G" BcBc "D" A2 (3AAA | "G" Bcde "A" fedc | "D" d2 dc d2:|
